X: 25609
T: Marquis Of Lorne, The
R: hornpipe
M: 4/4
K: Gmajor
|:ba|gfgd B2ed|cBcA F2DE|FGAB cedc|Bcde d2ba|
gfgd B2ed|cBcA F2DE|FGAB cdef|g2b2 g2:|
|:Bc|dBgB dBgB|dBgB d2cB|cafd cafd|cafd c2Bc|
dBgB dBgB|dBgB d2cB|Aafd ^cdef|g2g2 g2:|

